X:1
T:Partition sans titre
C:Compositeur / Arrangeur
L:1/8
M:4/4
I:linebreak $
K:D
V:1 treble nm="Violon" snm="Vln."
V:1
"D" dfec dBAf |"A" eAcA eAce |"D" a2 gf a2 gf |"A" eddc"G" B2 (3ABc |"D" dfec dBAf |"A" eAcA eAce | %6
"D" a2 gf a2 gf |1"A" eABc"D" d3 A :|2"A" eABc"D" dc d2 |:"D" fAeA dAAA | fAeA dAAA | %11
"A" gAfA eAAA | gAfA eAAA |"D" fAeA dAAA | fAeA dAAA |"A" gAfA eAAA |"G" BABc"D" d3 A :: %17
"A" eAcA eAcA | eAcA"D" BAFA |"A" eAcA eAcA |1"G" BABc"D" d3 A :|2 cAec"D" d3 A |] %22
